!!!!SEGMENT: pl-cz--ii-156--001_malik-jan--marsz-es.krn
!!!cenid: 18xx:976
!!!COM: Malik, Jan
!!!COM-rismID: pe30023932
!!!CDT: ~1800-1866
!!!CNT: Czech
!!!OTL: Marsz Es
!!!PDT: 1857
!!!AGN: Sacred; Mass
!!!SMS-siglum: PL-CZ
!!!SMS-shelfmark: II-156
!!!SMS-shelfwork: 001 W
!!!SMS-variant:
!!!SMS-altvar:
!!!NIFC-rismSourceID: 300000810
!!!NIFC-islandoraID: pl-cz:32623
!!!URL-pdf-islandora: https://repozytorium.nifc.pl/islandora/object/pl-cz%3A32623/datastream/PDF/view
!!!URL-scan:
!!!ONB-nifc: UWAGA: w źródle tytuł Marsz I
!!!AIN: 1 cor 6 empty
!!!key:
**kern	**dynam	**kern	**dynam	**kern	**dynam	**kern	**dynam	**kern	**dynam	**kern	**dynam	**kern	**dynam
*part7	*part7	*part6	*part6	*part5	*part5	*part4	*part4	*part3	*part3	*part2	*part2	*part1	*part1
*staff7	*	*staff6	*	*staff5	*	*staff4	*	*staff3	*	*staff2	*	*staff1	*
*Iempty	*	*Iempty	*	*Iempty	*	*Iempty	*	*Icor	*	*Iempty	*	*Iempty	*
*I"Tambur Grande.	*	*I"Bombardoni	*	*I"Tromba 2ga	*	*I"Tromba 1wsza	*	*I"Corni in Es.	*	*I"Clarinetto IIr	*	*I"Clarinetto in S.	*
*I'grancassa	*	*I'bombarde	*	*I'tr 2 in D	*	*I'tr 1 in D	*	*I'cor in Es	*	*I'cl 2 in B	*	*I'cl 1 in Es	*
*>[A,B,B,C,C,D,D,A,B,B,C,C]	*>[A,B,B,C,C,D,D,A,B,B,C,C]	*>[A,B,B,C,C,D,D,A,B,B,C,C]	*>[A,B,B,C,C,D,D,A,B,B,C,C]	*>[A,B,B,C,C,D,D,A,B,B,C,C]	*>[A,B,B,C,C,D,D,A,B,B,C,C]	*>[A,B,B,C,C,D,D,A,B,B,C,C]	*>[A,B,B,C,C,D,D,A,B,B,C,C]	*>[A,B,B,C,C,D,D,A,B,B,C,C]	*>[A,B,B,C,C,D,D,A,B,B,C,C]	*>[A,B,B,C,C,D,D,A,B,B,C,C]	*>[A,B,B,C,C,D,D,A,B,B,C,C]	*>[A,B,B,C,C,D,D,A,B,B,C,C]	*>[A,B,B,C,C,D,D,A,B,B,C,C]
*>A	*>A	*>A	*>A	*>A	*>A	*>A	*>A	*>A	*>A	*>A	*>A	*>A	*>A
*clefF4	*	*clefF4	*	*clefG2	*	*clefG2	*	*clefG2	*	*clefG2	*	*clefG2	*
*	*	*	*	*ITrd-2c-3	*	*ITrd-2c-3	*	*ITrd5c9	*	*ITrd1c2	*	*ITrd-2c-3	*
*k[e#c#e#c#f#c#f-b-g-c-f-a-gnengncnfnf#c#a#]	*	*k[b-e-a-]	*	*k[b-e-]	*	*k[b-e-a-]	*	*k[b-e-a-]	*	*k[b-e-a-]	*	*k[b-e-a-]	*
*A-:	*	*A-:	*	*A-:	*	*A-:	*	*A-:	*	*A-:	*	*A-:	*
*M4/4	*	*M4/4	*	*M4/4	*	*M4/4	*	*M4/4	*	*M4/4	*	*M4/4	*
*met(c)	*	*met(c)	*	*met(c)	*	*met(c)	*	*met(c)	*	*met(c)	*	*met(c|)	*
=1	=1	=1	=1	=1	=1	=1	=1	=1	=1	=1	=1	=1	=1
!LO:TX:t=P:problem=niektóre znaki w innych oktawach	!	!	!	!	!	!	!	!	!	!	!	!	!
!LO:TX:a:t=2	!	!	!LO:DY:rj	!	!LO:DY:rj	!	!LO:DY:rj	!	!LO:DY:rj	!	!LO:DY:rj	!LO:TX:a:t=2	!
0r	.	4.E-\	ff	4.e-/	ff	4.e-/	ff	4.e- 4.E-/	ff	4.e-/	ff	0r	.
.	.	8BB-\	.	8B-/	.	8B-/	.	8B- 8BB-/	.	8B-/	.	.	.
.	.	4.G\	.	4.g/	.	4.g/	.	4.g 4.G/	.	4.g/	.	.	.
.	.	8D\	.	8d/	.	8dn/	.	8dn 8D/	.	8d/	.	.	.
=2	=2	=2	=2	=2	=2	=2	=2	=2	=2	=2	=2	=2	=2
.	.	4E-\	.	4e-/	.	4e-/	.	4e- 4E-/	.	4e-\	.	.	.
.	.	4G\	.	4g/	.	4g/	.	4G/	.	4g\	.	.	.
.	.	(4c\	.	(4cc/	.	(4cc/	.	(4c/	.	(4cc\	.	.	.
.	.	4B-\)	.	4b-/)	.	4b-/)	.	4B-/)	.	4b-\)	.	.	.
=3	=3	=3	=3	=3	=3	=3	=3	=3	=3	=3	=3	=3	=3
*2\right	*	*	*	*	*	*	*	*	*	*	*	*	*
2Rb\	.	4E-\	.	2e-^>/	.	8e-/L	.	2e- 2G/	.	2g 2e-/	.	8ee-\L	.
.	.	.	.	.	.	8f/	.	.	.	.	.	8ff\	.
.	.	4B-\	.	.	.	8g/	.	.	.	.	.	8gg\	.
.	.	.	.	.	.	8a-/J	.	.	.	.	.	8aa-\J	.
2Rbn\	.	4G\	.	2e-^>/	.	8b-/L	.	2e- 2G/	.	2g 2e-/	.	8bb-\L	.
.	.	.	.	.	.	8cc/	.	.	.	.	.	8ccc\	.
.	.	4E-\	.	.	.	8dd/	.	.	.	.	.	8ddd\	.
.	.	.	.	.	.	8ee-/J	.	.	.	.	.	8eee-\J	.
!	!	!	!	!	!	!LO:LB:g=original	!	!	!	!	!	!	!
=4	=4	=4	=4	=4	=4	=4	=4	=4	=4	=4	=4	=4	=4
*	*	*	*	*	*	*2\right	*	*	*	*	*	*2\right	*
4Rb\	.	4BB-\	.	4d/	.	2ee-\	.	4f 4B-/	.	4a- 4f/	.	2eee-\	.
*	*	*	*	*	*	*	*	*rep	*	*	*	*	*
4Rb\	.	4BB-\	.	4d/	.	.	.	4f 4B-/	.	4a- 4f/	.	.	.
*	*	*	*	*	*	*	*	*Xrep	*	*	*	*	*
*	*	*	*	*	*	*	*	*rep	*	*	*	*	*
4Rb#\	.	4BB-\	.	4d/	.	4dd\	.	4f 4B-/	.	4a- 4f/	.	4ddd\	.
*	*	*	*	*	*	*	*	*Xrep	*	*	*	*	*
4r	.	4r	.	4r	.	4r	.	4r	.	4r	.	4r	.
!	!	!LO:LB:g=original	!	!	!	!	!	!LO:LB:g=original	!	!	!	!	!
=5	=5	=5	=5	=5	=5	=5	=5	=5	=5	=5	=5	=5	=5
!LO:TX:a:t=2	!	!	!	!	!	!	!LO:DY:rj	!	!	!	!LO:DY:rj	!LO:TX:a:t=2	!
0r	.	4.BB-/	.	4.B-/	.	4.B-/	ff	4.B-/	.	4.B-/	ff	0r	.
.	.	8FF/	.	8F/	.	8F/	.	8F/	.	8F/	.	.	.
.	.	4.D/	.	4.d/	.	4.d/	.	4.dn\	.	4.d/	.	.	.
.	.	8AAn/	.	8AX/	.	8AX/	.	8AX\	.	8A/	.	.	.
!	!	!	!	!LO:LB:g=original	!	!	!	!	!	!LO:LB:g=original	!	!	!
=6	=6	=6	=6	=6	=6	=6	=6	=6	=6	=6	=6	=6	=6
.	.	4BB-\	.	4B-/	.	4B-/	.	4B-\	.	4B-/	.	.	.
.	.	4D\	.	4d/	.	4d/	.	4d\	.	4d/	.	.	.
.	.	4G\	.	4g/	.	(4g/	.	(4g\	.	(4g/	.	.	.
.	.	4F\	.	4f/	.	4f/)	.	4f\)	.	4f/)	.	.	.
=7	=7	=7	=7	=7	=7	=7	=7	=7	=7	=7	=7	=7	=7
*	*	*	*	*	*	*	*	*2\right	*	*	*	*	*
2Rb\	.	4BB-\	.	2d/	.	8d/L	.	2f 2B-\	.	2a- 2f/	.	8dd\L	.
.	.	.	.	.	.	8e-/	.	.	.	.	.	8ee-\	.
.	.	4F\	.	.	.	8f/	.	.	.	.	.	8ff\	.
.	.	.	.	.	.	8g/J	.	.	.	.	.	8gg\J	.
2Rb#\	.	4D\	.	2d/	.	8a-/L	.	2f 2B-\	.	2a- 2f/	.	8aa-\L	.
.	.	.	.	.	.	8b-/	.	.	.	.	.	8bb-\	.
.	.	4BB-\	.	.	.	8cc/	.	.	.	.	.	8ccc\	.
.	.	.	.	.	.	8b-/J	.	.	.	.	.	8bb-\J	.
!LO:LB:g=original	!	!	!	!	!	!	!	!	!	!	!	!LO:LB:g=original	!
=8	=8	=8	=8	=8	=8	=8	=8	=8	=8	=8	=8	=8	=8
4Rcc\	.	4E-\	.	4e-/	.	4.b-/	.	4e- 4G\	.	4g 4e-/	.	4.bb-\	.
*	*	*	*	*	*	*	*	*rep	*	*	*	*	*
4Rccn\	.	4E-\	.	4e-/	.	.	.	4e- 4G\	.	4g 4e-/	.	.	.
.	.	.	.	.	.	8a-/	f	.	.	.	.	8aa-\	.
*	*	*	*	*	*	*	*	*Xrep	*	*	*	*	*
*	*	*	*	*	*	*	*	*rep	*	*	*	*	*
4Rcc\	.	4E-\	.	4e-/	.	4g/	.	4e- 4G\	.	4g 4e-/	.	4gg\	.
*	*	*	*	*	*	*	*	*Xrep	*	*	*	*	*
4r	.	4r	.	4r	.	4r	.	4r	.	4r	.	4r	.
!	!	!	!	!	!	!LO:LB:g=original	!	!	!	!	!	!	!
=9!|:	=9!|:	=9!|:	=9!|:	=9!|:	=9!|:	=9!|:	=9!|:	=9!|:	=9!|:	=9!|:	=9!|:	=9!|:	=9!|:
*>B	*>B	*>B	*>B	*>B	*>B	*>B	*>B	*>B	*>B	*>B	*>B	*>B	*>B
*k[anenandngndngncn]	*	*	*	*	*	*	*	*	*	*	*	*	*
4Ra\	.	4E- 4EE-/	.	1r	.	4.e-/	.	4r	.	4r	.	4.gg\	.
4r	.	4r	.	.	.	.	.	4e- 4G\	.	4g 4e-/	.	.	.
.	.	.	.	.	.	8f/	.	.	.	.	.	8aa-\	.
*	*	*	*	*	*	*	*	*rep	*	*	*	*	*
2r	.	2r	.	.	.	4g/	.	4e- 4G\	.	4g 4e-/	.	4bb-\	.
*	*	*	*	*	*	*	*	*Xrep	*	*	*	*	*
*	*	*	*	*	*	*	*	*rep	*	*	*	*	*
.	.	.	.	.	.	4f#X/	.	4e- 4G\	.	4g 4e-/	.	4aaX\	.
*	*	*	*	*	*	*	*	*Xrep	*	*	*	*	*
!	!	!LO:LB:g=original	!	!	!	!	!	!	!	!	!	!	!
=10	=10	=10	=10	=10	=10	=10	=10	=10	=10	=10	=10	=10	=10
*rep	*	*rep	*	*	*	*	*	*rep	*	*rep	*	*	*
.	.	.	.	.	.	8qa-/	.	.	.	.	.	8qqccc/	.
4Ra\	.	4E- 4EE-/	.	1r	.	4g/	.	4r	.	4r	.	4bb-\	.
4r	.	4r	.	.	.	4f#X/	.	4e- 4G\	.	4g 4e-/	.	4aaX\	.
2r	.	2r	.	.	.	2g/	.	4e- 4G\	.	4g 4e-/	.	4bb-\	.
.	.	.	.	.	.	.	.	4e- 4G\	.	4g 4e-/	.	4bbX\	.
*Xrep	*	*Xrep	*	*	*	*	*	*Xrep	*	*Xrep	*	*	*
!	!	!	!	!	!	!	!	!LO:LB:g=original	!	!	!	!	!
=11	=11	=11	=11	=11	=11	=11	=11	=11	=11	=11	=11	=11	=11
*	*	*	*	*	*	*	*	*^	*	*	*	*	*
2Rb\	.	2AA-/	.	2f/	.	2a-/	.	2e-^/	2A-\	.	4r	.	4ddd\	.
.	.	.	.	.	.	.	.	.	.	.	4a- 4f/	.	4ccc\	.
*	*	*	*	*	*	*	*	*rep	*rep	*	*rep	*	*	*
2Rb#\	.	2AA-/	.	2f/	.	2a-/	.	2e-^/	2A-\	.	4a- 4f/	.	4cccM\	.
*	*	*	*	*	*	*	*	*	*	*	*Xrep	*	*	*
*	*	*	*	*	*	*	*	*	*	*	*rep	*	*	*
.	.	.	.	.	.	.	.	.	.	.	4a- 4f/	.	4bbX\	.
*	*	*	*	*	*	*	*	*Xrep	*Xrep	*	*Xrep	*	*	*
*	*	*	*	*	*	*	*	*v	*v	*	*	*	*	*
!	!	!	!	!	!	!	!	!	!	!LO:LB:g=original	!	!	!
=12	=12	=12	=12	=12	=12	=12	=12	=12	=12	=12	=12	=12	=12
.	.	.	.	.	.	.	.	.	.	.	.	8qddd/	.
4Rb\	.	4AA-/	.	4f/	.	4a-/	.	4f 4A-\	.	4r	.	4ccc\	.
4Rb\	.	4AA-/	.	4f/	.	4a-/	.	4f 4A-\	.	4a- 4f/	.	4bbX\	.
2Rb\	.	2AA-/	.	2f/	.	2a-/	.	2f 2A-\	.	2a- 2f/	.	8ccc\L	.
.	.	.	.	.	.	.	.	.	.	.	.	8bb\	.
.	.	.	.	.	.	.	.	.	.	.	.	8aa-\	.
.	.	.	.	.	.	.	.	.	.	.	.	8gg\J	.
!	!	!	!	!LO:LB:g=original	!	!	!	!	!	!	!	!LO:LB:g=original	!
=13	=13	=13	=13	=13	=13	=13	=13	=13	=13	=13	=13	=13	=13
*	*	*	*	*^	*	*	*	*	*	*	*	*	*
!	!LO:DY:rj:t=p.	!	!	!	!	!	!	!	!	!	!	!	!	!
4Ra\	p	4BB-\	.	1rdd	4r	.	4.d/	.	4r	.	4r	.	4.ff\	.
4r	.	4r	.	.	4b-/	.	.	.	4f 4B-\	.	4a- 4f/	.	.	.
.	.	.	.	.	.	.	8e-/	.	.	.	.	.	8gg\	.
*	*	*	*	*	*	*	*	*	*rep	*	*rep	*	*	*
2r	.	4BB-\	.	.	4r	.	4f/	.	4f 4B-\	.	4a- 4f/	.	4aa-\	.
*	*	*	*	*	*	*	*	*	*Xrep	*	*Xrep	*	*	*
*	*	*	*	*	*	*	*	*	*rep	*	*rep	*	*	*
.	.	4r	.	.	4b-/	.	4eX/	.	4f 4B-\	.	4a- 4f/	.	4gg\	.
*	*	*	*	*	*	*	*	*	*Xrep	*	*Xrep	*	*	*
!	!	!	!	!	!	!	!LO:LB:g=original	!	!	!	!	!	!	!
=14	=14	=14	=14	=14	=14	=14	=14	=14	=14	=14	=14	=14	=14	=14
*rep	*	*rep	*	*rep	*rep	*	*	*	*rep	*	*rep	*	*	*
.	.	.	.	.	.	.	8qqg/	.	.	.	.	.	8qqbb-/	.
4Ra\	.	4BB-\	.	1rdd	4r	.	4f/	.	4r	.	4r	.	4aa-\	.
4r	.	4r	.	.	4b-/	.	4eX/	.	4f 4B-\	.	4a- 4f/	.	4gg\	.
2r	.	4BB-\	.	.	4r	.	4f/	.	4f 4B-\	.	4a- 4f/	.	4aa-\	.
.	.	4r	.	.	4b-/	.	4f#X/	.	4f 4B-\	.	4a- 4f/	.	4aaX\	.
*Xrep	*	*Xrep	*	*Xrep	*Xrep	*	*	*	*Xrep	*	*Xrep	*	*	*
*	*	*	*	*v	*v	*	*	*	*	*	*	*	*	*
=15	=15	=15	=15	=15	=15	=15	=15	=15	=15	=15	=15	=15	=15
2Rb\	.	2E- 2EE-/	.	2g/	.	4a-/	.	2g 2e-\	.	4r	.	4ccc\	.
.	.	.	.	.	.	4g/	.	.	.	4g 4e-/	.	4bb-\	.
2Rbn\	.	2E- 2EE-/	.	2g/	.	4gm</	.	2g 2e-\	.	4g 4e-/	.	4bb-M\	.
.	.	.	.	.	.	4f#X/	.	.	.	4g 4e-/	.	4aa-\	.
=16	=16	=16	=16	=16	=16	=16	=16	=16	=16	=16	=16	=16	=16
.	.	.	.	.	.	.	.	.	.	.	.	8qbb-/	.
4Rb\	.	4E- 4EE-/	.	4g/	.	4g/	.	4g 4e-\	.	4r	.	4bb-\	.
4Rb\	.	4E- 4EE-/	.	4g/	.	4f#X/	.	4g 4e-\	.	4g 4e-/	.	4aaX\	.
2Rb#\	.	2E- 2EE-/	.	2g/	.	8g/L	.	2g 2e-\	.	2g 2e-/	.	8bb-\L	.
.	.	.	.	.	.	8a-/	.	.	.	.	.	8ccc\	.
.	.	.	.	.	.	8g/	.	.	.	.	.	8bb-\	.
.	.	.	.	.	.	8f#/J	.	.	.	.	.	8aa\J	.
!	!	!LO:LB:g=original	!	!	!	!	!	!LO:LB:g=original	!	!	!	!	!
=17	=17	=17	=17	=17	=17	=17	=17	=17	=17	=17	=17	=17	=17
4Ra\	.	4E- 4EE-/	.	1r	.	4.e-/	.	4r	.	4r	.	4.gg\	.
4r	.	4r	.	.	.	.	.	4e- 4G\	.	4g 4e-/	.	.	.
.	.	.	.	.	.	8f/	.	.	.	.	.	8aa-\	.
*	*	*	*	*	*	*	*	*rep	*	*rep	*	*	*
2r	.	2r	.	.	.	4g/	.	4e- 4G\	.	4g 4e-/	.	4bb-\	.
*	*	*	*	*	*	*	*	*Xrep	*	*Xrep	*	*	*
*	*	*	*	*	*	*	*	*rep	*	*rep	*	*	*
.	.	.	.	.	.	4f#X/	.	4e- 4G\	.	4g 4e-/	.	4aaX\	.
*	*	*	*	*	*	*	*	*Xrep	*	*Xrep	*	*	*
!	!	!	!	!	!	!	!	!	!	!	!	!LO:LB:g=original	!
=18	=18	=18	=18	=18	=18	=18	=18	=18	=18	=18	=18	=18	=18
*rep	*	*rep	*	*	*	*	*	*rep	*	*rep	*	*	*
.	.	.	.	.	.	8qa-/	.	.	.	.	.	8qaa-/	.
4Ra\	.	4E- 4EE-/	.	1r	.	4g/	.	4r	.	4r	.	4bb-\	.
4r	.	4r	.	.	.	4f#X/	.	4e- 4G\	.	4g 4e-/	.	4aaX\	.
2r	.	2r	.	.	.	2g/	.	4e- 4G\	.	4g 4e-/	.	4bb-\	.
.	.	.	.	.	.	.	.	4e- 4G\	.	4g 4e-/	.	4bbX\	.
*Xrep	*	*Xrep	*	*	*	*	*	*Xrep	*	*Xrep	*	*	*
!	!	!	!	!	!	!LO:LB:g=original	!	!	!	!	!	!	!
=19	=19	=19	=19	=19	=19	=19	=19	=19	=19	=19	=19	=19	=19
2Rb\	.	2AA-/	.	2f/	.	2a-/	.	2f 2A-\	.	4r	.	4ddd\	.
.	.	.	.	.	.	.	.	.	.	4a- 4f/	.	4ccc\	.
*	*	*	*	*	*	*	*	*rep	*	*	*	*	*
.	.	.	.	.	.	.	.	.	.	.	.	8qddd/	.
2Rb\	.	2AA-/	.	2f/	.	2a-/	.	2f 2A-\	.	4a- 4f/	.	4ccc\	.
.	.	.	.	.	.	.	.	.	.	4a- 4f/	.	4bbX\	.
*	*	*	*	*	*	*	*	*Xrep	*	*	*	*	*
=20	=20	=20	=20	=20	=20	=20	=20	=20	=20	=20	=20	=20	=20
.	.	.	.	.	.	.	.	.	.	.	.	8qddd/	.
4Rb\	.	4AA-/	.	4f/	.	4a-/	.	4f 4A-\	.	4r	.	4ccc\	.
4Rb\	.	4AA-/	.	4f/	.	4a-/	.	4f 4A-\	.	4a- 4f/	.	4bbX\	.
2Rb^\	.	2AA-/	.	2f/	.	2a-/	.	2f 2A-\	.	2a- 2f^>/	.	2ccc\	.
!	!	!	!	!LO:LB:g=original	!	!	!	!	!	!	!	!	!
=21	=21	=21	=21	=21	=21	=21	=21	=21	=21	=21	=21	=21	=21
!	!	!	!LO:DY:rj	!	!	!	!LO:DY:rj	!	!LO:DY:rj	!	!LO:DY:rj	!	!LO:DY:rj
2Rb^\	ff	2BB-/	ff	2d/	.	2a-/	ff	2f 2B-\	ff	2a- 2f/	ff	2ddd\	ff
*	*	*	*	*	*	*	*	*rep	*	*	*	*	*
2Rb^\	.	2BB-/	.	2d/	.	2a-/	.	2f 2B-\	.	2a- 2f/	.	8ccc\L	.
.	.	.	.	.	.	.	.	.	.	.	.	8bb-\	.
.	.	.	.	.	.	.	.	.	.	.	.	8aaX\	.
.	.	.	.	.	.	.	.	.	.	.	.	8bb-\J	.
*	*	*	*	*	*	*	*	*Xrep	*	*	*	*	*
!LO:LB:g=original	!	!	!	!	!	!	!	!	!	!	!	!	!
=22	=22	=22	=22	=22	=22	=22	=22	=22	=22	=22	=22	=22	=22
*	*	*2\right	*	*	*	*	*	*	*	*	*	*	*
2Rb\	.	2E-\	.	4r	.	2g/	.	2g 2e-\	.	4r	.	2eee-\	.
.	.	.	.	4e-/	.	.	.	.	.	4g 4e-/	.	.	.
*	*	*	*	*	*	*	*	*	*	*rep	*	*	*
2r	.	2r	.	4e-/	.	8f/L	.	2g 2e-\	.	4g 4e-/	.	8fff\L	.
.	.	.	.	.	.	8e-/	.	.	.	.	.	8eee-\	.
*	*	*	*	*	*	*	*	*	*	*Xrep	*	*	*
*	*	*	*	*	*	*	*	*	*	*rep	*	*	*
.	.	.	.	4e-/	.	8d/	.	.	.	4g 4e-/	.	8ddd\	.
.	.	.	.	.	.	8c/J	.	.	.	.	.	8ccc\J	.
*	*	*	*	*	*	*	*	*	*	*Xrep	*	*	*
!	!	!LO:LB:g=original	!	!	!	!	!	!	!	!	!	!LO:LB:g=original	!
=23	=23	=23	=23	=23	=23	=23	=23	=23	=23	=23	=23	=23	=23
4Rb\	.	4BB-/	.	4r	.	4r	.	4r	.	4r	.	4ccc\	.
4r	.	4r	.	4d/	.	4a-/	.	4f 4B-\	.	4a- 4f/	.	8bb-\L	.
.	.	.	.	.	.	.	.	.	.	.	.	8dd\J	.
*	*	*	*	*	*	*	*	*	*	*	*	*rep	*
4Rb\	.	4BB-/	.	4r	.	4r	.	4r	.	4r	.	4ccc\	.
4r	.	4r	.	4d/	.	4a-/	.	4f 4B-\	.	4a- 4f/	.	8bb-\L	.
.	.	.	.	.	.	.	.	.	.	.	.	8dd\J	.
*	*	*	*	*	*	*	*	*	*	*	*	*Xrep	*
!	!	!	!	!	!	!	!	!LO:LB:g=original	!	!	!	!	!
=24	=24	=24	=24	=24	=24	=24	=24	=24	=24	=24	=24	=24	=24
*rep	*	*	*	*	*	*	*	*	*	*	*	*	*
4Rb\	.	4E-\	.	4r	.	4r	.	4r	.	4r	.	4ccc\	.
4r	.	4r	.	4e-/	.	4g/	.	4g 4e-\	.	4g 4e-/	.	8bb-\L	.
.	.	.	.	.	.	.	.	.	.	.	.	8gg\J	.
*	*	*	*	*	*	*	*	*	*	*rep	*	*	*
4Rb\	.	4EE-/	.	4r	.	4r	.	4r	.	4g 4e-/	.	8ee-\L	.
.	.	.	.	.	.	.	.	.	.	.	.	8dd\	.
*	*	*	*	*	*	*	*	*	*	*Xrep	*	*	*
*	*	*	*	*	*	*	*	*	*	*rep	*	*	*
4r	.	4r	.	4e-/	.	4g/	.	4g 4e-\	.	4g 4e-/	.	8ee-\	.
.	.	.	.	.	.	.	.	.	.	.	.	8gg\J	.
*Xrep	*	*	*	*	*	*	*	*	*	*Xrep	*	*	*
!	!	!	!	!	!	!LO:LB:g=original	!	!	!	!LO:LB:g=original	!	!	!
=25	=25	=25	=25	=25	=25	=25	=25	=25	=25	=25	=25	=25	=25
!	!	!	!	!	!LO:DY:rj	!	!	!	!	!	!LO:DY:rj	!	!
2Rb\	.	2BB-/	.	2d/	ff	2a-/	.	2f 2B-\	.	2a- 2f/	ff	4ccc\	.
.	.	.	.	.	.	.	.	.	.	.	.	8bb-\	.
.	.	.	.	.	.	.	.	.	.	.	.	8r	.
*	*	*	*	*	*	*	*	*rep	*	*	*	*rep	*
2Rb\	.	2BB-/	.	2d/	.	2a-/	.	2f 2B-\	.	2a- 2f/	.	4ccc\	.
.	.	.	.	.	.	.	.	.	.	.	.	8bb-\	.
.	.	.	.	.	.	.	.	.	.	.	.	8r	.
*	*	*	*	*	*	*	*	*Xrep	*	*	*	*Xrep	*
=26	=26	=26	=26	=26	=26	=26	=26	=26	=26	=26	=26	=26	=26
2Rb\	.	4E-\	.	4r	.	4r	.	4r	.	4r	.	4gg\	.
.	.	4r	.	4e-/	.	4g/	.	4g 4e-\	.	4g 4e-/	.	8aa-\L	.
.	.	.	.	.	.	.	.	.	.	.	.	8gg\J	.
2Rb\	.	4AA-/	.	4r	.	4r	.	4r	.	4r	.	8ff\L	.
.	.	.	.	.	.	.	.	.	.	.	.	8ee-\	.
.	.	4r	.	4f/	.	4a-/	.	4f 4B-\	.	4a- 4f/	.	8dd\	.
.	.	.	.	.	.	.	.	.	.	.	.	8cc\J	.
!	!	!	!	!LO:LB:g=original	!	!	!	!	!	!	!	!LO:LB:g=original	!
=27	=27	=27	=27	=27	=27	=27	=27	=27	=27	=27	=27	=27	=27
2Rb\	.	4BB-\	.	4r	.	4r	.	4r	.	4r	.	4ccc\	.
.	.	4r	.	4e-/	.	4g/	.	4e- 4G\	.	4g 4e-/	.	8bb-\L	.
.	.	.	.	.	.	.	.	.	.	.	.	8gg\J	.
2Rb#\	.	4BB-\	.	4r	.	4r	.	4r	.	4r	.	4bb-\	.
.	.	4r	.	4f/	.	4a-/	.	4f 4B-\	.	4a- 4f/	.	8ff\L	.
.	.	.	.	.	.	.	.	.	.	.	.	8gg\J	.
=28	=28	=28	=28	=28	=28	=28	=28	=28	=28	=28	=28	=28	=28
4Rb\	.	4E-\	.	4e-/	.	4g/	.	4e- 4G\	.	4g 4e-/	.	4ee-\	.
*	*	*	*	*	*	*	*	*rep	*	*rep	*	*	*
4Rb\	.	4E-\	.	4e-/	.	4g/	.	4e- 4G\	.	4g 4e-/	.	4ee-\	.
*	*	*	*	*	*	*	*	*Xrep	*	*Xrep	*	*	*
*	*	*	*	*	*	*	*	*rep	*	*rep	*	*	*
4Rbn\	.	4E-\	.	4e-/	.	4g/	.	4e- 4G\	.	4g 4e-/	.	4ee-\	.
*	*	*	*	*	*	*	*	*Xrep	*	*Xrep	*	*	*
4r	.	4ryy	.	4ryy	.	4ryy	.	4ryy	.	4ryy	.	4r	.
!LO:LB:g=original	!	!LO:LB:g=original	!	!	!	!	!	!	!	!	!	!	!
=29:|!|:	=29:|!|:	=29:|!|:	=29:|!|:	=29:|!|:	=29:|!|:	=29:|!|:	=29:|!|:	=29:|!|:	=29:|!|:	=29:|!|:	=29:|!|:	=29:|!|:	=29:|!|:
*>C	*>C	*>C	*>C	*>C	*>C	*>C	*>C	*>C	*>C	*>C	*>C	*>C	*>C
*	*	*	*	*k[b-e-]	*	*	*	*	*	*	*	*	*
*	*	*	*	*	*	*	*	*	*	*2\right	*	*	*
!LO:TX:a:t=in F.Moll	!LO:DY:rj	!	!LO:DY:rj	!LO:TX:t=P:problem=krzyżyk przy kluczu oktawę nizej	!	!	!LO:DY:rj	!	!	!	!	!	!
2Rb\	ff	2GG/	ff	2B-/	.	2d/	ff	2g 2BX\	.	2dd 2bX\	.	2gg\	.
2Rb\	.	2GG/	.	2B-/	.	2d/	.	2g 2B\	.	2dd 2b\	.	2gg\	.
!	!	!	!	!	!	!	!	!LO:LB:g=original	!	!	!	!	!
=30	=30	=30	=30	=30	=30	=30	=30	=30	=30	=30	=30	=30	=30
*	*	*	*	*	*	*	*	*^	*	*	*	*	*
4Rb\	.	4C\	.	4c/	.	4e-/	.	4g/	4c\	.	4ee- 4cc\	.	8gg\L	.
.	.	.	.	.	.	.	.	.	.	.	.	.	8ff#X\	.
4Rb\	.	4C\	.	4c/	.	4e-/	.	4g/	4c\	.	4ee- 4cc\	.	8gg\	.
.	.	.	.	.	.	.	.	.	.	.	.	.	8aa-\J	.
4Rb\	.	4C\	.	4c/	.	4e-/	.	4g/	4c\	.	4ee- 4cc\	.	4gg\	.
4r	.	4r	.	4r	.	4r	.	4r	4ryy	.	4r	.	8ee-\L	.
.	.	.	.	.	.	.	.	.	.	.	.	.	8gg\J	.
*	*	*	*	*	*	*	*	*v	*v	*	*	*	*	*
!	!	!	!	!	!	!LO:LB:g=original	!	!	!	!LO:LB:g=original	!	!LO:LB:g=original	!
=31	=31	=31	=31	=31	=31	=31	=31	=31	=31	=31	=31	=31	=31
!	!	!	!	!	!	!	!	!	!	!	!	!	!LO:DY:rj
2Rb\	.	2BB-/	.	2d/	.	2a-X/	.	2f 2B-/	.	2ff 2dd\	.	2bb-\	ff
*	*	*	*	*	*	*	*	*rep	*	*	*	*	*
2Rb\	.	2BB-/	.	2d/	.	2a-/	.	2f 2B-/	.	2ff 2dd\	.	2bb-\	.
*	*	*	*	*	*	*	*	*Xrep	*	*	*	*	*
=32	=32	=32	=32	=32	=32	=32	=32	=32	=32	=32	=32	=32	=32
4Rb\	.	4E-\	.	4B-/	.	4g/	.	4g 4B-/	.	4gg 4ee-\	.	8bb-\L	.
.	.	.	.	.	.	.	.	.	.	.	.	8aaX\	.
*	*	*	*	*	*	*	*	*rep	*	*	*	*	*
4Rb\	.	4E-\	.	4B-/	.	4g/	.	4g 4B-/	.	4gg 4ee-\	.	8bb-\	.
.	.	.	.	.	.	.	.	.	.	.	.	8ccc\J	.
*	*	*	*	*	*	*	*	*Xrep	*	*	*	*	*
*	*	*	*	*	*	*	*	*rep	*	*	*	*	*
4Rb\	.	4E-\	.	4B-/	.	4g/	.	4g 4B-/	.	4gg 4ee-\	.	4bb-\	.
*	*	*	*	*	*	*	*	*Xrep	*	*	*	*	*
4r	.	4r	.	4r	.	8a-/L	.	4r	.	4r	.	8aa-\L	.
.	.	.	.	.	.	8g/J	.	.	.	.	.	8gg\J	.
!	!	!	!	!LO:LB:g=original	!	!	!	!	!	!	!	!	!
=33	=33	=33	=33	=33	=33	=33	=33	=33	=33	=33	=33	=33	=33
4Rb\	.	2BB-/	.	4r	.	4g/	.	4r	.	4r	.	4gg\	.
4r	.	.	.	4d/	.	8f/L	.	4f 4B-\	.	4a- 4f/	.	8ff\L	.
.	.	.	.	.	.	8g/J	.	.	.	.	.	8gg\J	.
*	*	*	*	*	*	*	*	*rep	*	*rep	*	*	*
2r	.	2BB-/	.	4d/	.	4a-/	.	4f 4B-\	.	4a- 4f/	.	4aa-\	.
*	*	*	*	*	*	*	*	*Xrep	*	*Xrep	*	*	*
*	*	*	*	*	*	*	*	*rep	*	*rep	*	*	*
.	.	.	.	4d/	.	8c/L	.	4f 4B-\	.	4a- 4f/	.	8cc\L	.
.	.	.	.	.	.	8d/J	.	.	.	.	.	8dd\J	.
*	*	*	*	*	*	*	*	*Xrep	*	*Xrep	*	*	*
=34	=34	=34	=34	=34	=34	=34	=34	=34	=34	=34	=34	=34	=34
*rep	*	*	*	*	*	*	*	*	*	*	*	*	*
4Rb\	.	2E-\	.	4r	.	4f/	.	4r	.	4r	.	4ff\	.
4r	.	.	.	4e-/	.	4e-/	.	4e- 4G\	.	4g 4e-/	.	4ee-\	.
*	*	*	*	*	*	*	*	*rep	*	*	*	*	*
2r	.	2r	.	4e-/	.	[2g/	.	4e- 4G\	.	4g 4e-/	.	[2eee-\	.
*	*	*	*	*	*	*	*	*Xrep	*	*	*	*	*
*	*	*	*	*	*	*	*	*rep	*	*	*	*	*
.	.	.	.	4e-/	.	.	.	4e- 4G\	.	4g 4e-/	.	.	.
*Xrep	*	*	*	*	*	*	*	*Xrep	*	*	*	*	*
!	!	!	!	!	!	!	!	!	!	!	!	!LO:LB:g=original	!
=35	=35	=35	=35	=35	=35	=35	=35	=35	=35	=35	=35	=35	=35
*rep	*	*	*	*rep	*	*	*	*rep	*	*rep	*	*	*
!	!	!	!	!LO:TX:t=P:problem=dwutaktowa repetycja	!	!	!	!LO:TX:t=P:problem=dwutaktowa repetycja	!	!LO:TX:t=P:problem=dwutaktowa repetycja	!	!	!
4Rb\	.	2BB-/	.	4r	.	4g/]	.	4r	.	4r	.	4eee-\]	.
4r	.	.	.	4d/	.	4f/	.	4f 4B-\	.	4a- 4f/	.	4ddd\	.
2r	.	2BB-/	.	4d/	.	4B-/	.	4f 4B-\	.	4a- 4f/	.	4dd\	.
.	.	.	.	4d/	.	8d/L	.	4f 4B-\	.	4a- 4f/	.	8ff\L	.
.	.	.	.	.	.	8f/J	.	.	.	.	.	8aa-\J	.
*Xrep	*	*	*	*	*	*	*	*	*	*	*	*	*
!	!	!LO:LB:g=original	!	!	!	!LO:LB:g=original	!	!	!	!	!	!	!
=36	=36	=36	=36	=36	=36	=36	=36	=36	=36	=36	=36	=36	=36
*rep	*	*	*	*	*	*	*	*	*	*	*	*	*
4Rb\	.	4E-/	.	4r	.	4a-/	.	4r	.	4r	.	4ccc\	.
4r	.	4BB-/	.	4e-/	.	4g/	.	4e- 4G\	.	4g 4e-/	.	4bb-\	.
2r	.	4GG/	.	4e-/	.	4f/	.	4e- 4G\	.	4g 4e-/	.	2ee-\	.
.	.	4EE-/	.	4e-/	.	4d/	.	4e- 4G\	.	4g 4e-/	.	.	.
*Xrep	*	*	*	*Xrep	*	*	*	*Xrep	*	*Xrep	*	*	*
!LO:LB:g=original	!	!	!	!	!	!	!	!	!	!	!	!	!
=37	=37	=37	=37	=37	=37	=37	=37	=37	=37	=37	=37	=37	=37
4Rb\	.	2BB-/	.	4r	.	4g/	.	4r	.	4r	.	4gg\	.
4r	.	.	.	4d/	.	8f/L	.	4f 4B-\	.	4a- 4f/	.	8ff\L	.
.	.	.	.	.	.	8g/J	.	.	.	.	.	8gg\J	.
*	*	*	*	*	*	*	*	*rep	*	*rep	*	*	*
2r	.	2BB-/	.	4d/	.	4a-/	.	4f 4B-\	.	4a- 4f/	.	4aa-\	.
*	*	*	*	*	*	*	*	*Xrep	*	*Xrep	*	*	*
*	*	*	*	*	*	*	*	*rep	*	*rep	*	*	*
.	.	.	.	4d/	.	8c/L	.	4f 4B-\	.	4a- 4f/	.	8cc\L	.
.	.	.	.	.	.	8d/J	.	.	.	.	.	8dd\J	.
*	*	*	*	*	*	*	*	*Xrep	*	*Xrep	*	*	*
!	!	!	!	!	!	!	!	!LO:LB:g=original	!	!LO:LB:g=original	!	!	!
=38	=38	=38	=38	=38	=38	=38	=38	=38	=38	=38	=38	=38	=38
*	*	*	*	*	*	*	*	*^	*	*	*	*	*
4Rb\	.	2E-\	.	4r	.	4g/	.	4r	4ryy	.	4r	.	4ff\	.
4r	.	.	.	4e-/	.	4e-/	.	4e-/	4G\	.	4g 4e-/	.	4ee-\	.
2Rb^\	.	2AAn/	.	2g-X^/	.	2cc/	.	2g-X/	2c\	.	2cc 2f#X/	.	[2eee-\	.
!	!	!	!	!	!	!LO:LB:g=original	!	!	!	!	!	!	!LO:LB:g=original	!
=39	=39	=39	=39	=39	=39	=39	=39	=39	=39	=39	=39	=39	=39	=39
4Rb\	.	4BB-\	.	4gn/	.	4f/	.	2gn/	2e-\	.	4r	.	4eee-\]	.
4r	.	4r	.	4e-/	.	4r	.	.	.	.	4g 4e-/	.	8gg\L	.
.	.	.	.	.	.	.	.	.	.	.	.	.	8ccc\J	.
4Rb\	.	4BB-\	.	4r	.	4a-/	.	2e-/	2B-\	.	4r	.	4bb-\	.
4r	.	4r	.	4d/	.	4r	.	.	.	.	4a- 4f/	.	8ff\L	.
.	.	.	.	.	.	.	.	.	.	.	.	.	8gg\J	.
*	*	*	*	*	*	*	*	*v	*v	*	*	*	*	*
!	!	!	!	!LO:LB:g=original	!	!	!	!	!	!	!	!	!
=40	=40	=40	=40	=40	=40	=40	=40	=40	=40	=40	=40	=40	=40
4Rb\	.	4E-\	.	4e-/	.	4g/	.	4e- 4G/	.	4g 4e-/	.	4ee-\	.
4Rb\	.	4E-\	.	4e-/	.	4g/	.	4e- 4G/	.	4g 4e-/	.	4ee-\	.
4Rb\	.	4E-\	.	4e-/	.	4g/	.	4e- 4G/	.	4g 4e-/	.	4ee-\	.
4r	.	4r	.	4r	.	4r	.	4r	.	4r	.	4r	.
!LO:LB:g=original	!	!LO:LB:g=original	!	!LO:LB:g=original	!	!LO:LB:g=original	!	!LO:LB:g=original	!	!LO:LB:g=original	!	!LO:LB:g=original	!
=41:|!	=41:|!	=41:|!	=41:|!	=41:|!	=41:|!	=41:|!	=41:|!	=41:|!	=41:|!	=41:|!	=41:|!	=41:|!	=41:|!
*>D	*>D	*>D	*>D	*>D	*>D	*>D	*>D	*>D	*>D	*>D	*>D	*>D	*>D
*clefG2	*	*	*	*	*	*	*	*	*	*	*	*	*
*k[d-a-d-g-e-a-d#b#e#cnenan]	*	*k[b-e-a-d-]	*	*k[b-e-a-d-]	*	*k[b-e-a-d-]	*	*k[b-e-a-d-]	*	*k[b-e-a-d-]	*	*k[b-e-a-d-]	*
!LO:TX:t=P:problem=niektóre znaki w innych oktawach	!	!	!	!	!	!	!	!	!	!	!	!	!
!LO:TX:a:t=1	!	!LO:TX:a:t=Trio	!	!LO:TX:a:t=Trio	!	!	!	!LO:TX:a:t=Trio	!	!LO:TX:a:t=Trio.	!	!LO:TX:a:t=Trio	!
1r	.	2AA-/	.	4r	.	8c/L	.	4r	.	4r	.	8ccc\L	.
.	.	.	.	.	.	8d-/	.	.	.	.	.	8ddd-\	.
.	.	.	.	4e-/	.	8d/	.	4a- 4c\	.	4cc 4a-\	.	8ddd\	.
.	.	.	.	.	.	8e-/J	.	.	.	.	.	8eee-\J	.
*	*	*	*	*	*	*	*	*rep	*	*rep	*	*	*
.	.	2r	.	4e-/	.	4a-/	.	4a- 4c\	.	4cc 4a-\	.	4aa-\	.
*	*	*	*	*	*	*	*	*Xrep	*	*Xrep	*	*	*
*	*	*	*	*	*	*	*	*rep	*	*rep	*	*	*
.	.	.	.	4e-/	.	8g/L	.	4a- 4c\	.	4cc 4a-\	.	8gg\L	.
.	.	.	.	.	.	8a-/J	.	.	.	.	.	8aa-\J	.
*	*	*	*	*	*	*	*	*Xrep	*	*Xrep	*	*	*
=42	=42	=42	=42	=42	=42	=42	=42	=42	=42	=42	=42	=42	=42
2Rb^\	.	2D-/	.	2f^>/	.	4cc\	.	2f 2B-\	.	2dd-X 2b-^\	.	4ccc^\	.
.	.	.	.	.	.	8b-\	.	.	.	.	.	8bb-\	.
.	.	.	.	.	.	8r	.	.	.	.	.	8r	.
*	*	*	*	*	*	*	*	*rep	*	*	*	*	*
2Rb#\	.	2D-/	.	2f^>/	.	4b-\	.	2f 2B-\	.	2dd- 2b-^\	.	4bb-^\	.
.	.	.	.	.	.	8a-\	.	.	.	.	.	8aa-\	.
.	.	.	.	.	.	8r	.	.	.	.	.	8r	.
*	*	*	*	*	*	*	*	*Xrep	*	*	*	*	*
=43	=43	=43	=43	=43	=43	=43	=43	=43	=43	=43	=43	=43	=43
!LO:TX:a:t=1	!	!	!	!	!	!	!	!	!	!	!	!	!
1r	.	2E-/	.	4r	.	8g/L	.	4r	.	4r	.	8gg\L	.
.	.	.	.	.	.	8a-/	.	.	.	.	.	8aa-\	.
.	.	.	.	4d-/	.	8aX/	.	4g 4B-\	.	4b- 4g\	.	8aaX\	.
.	.	.	.	.	.	8b-/J	.	.	.	.	.	8bb-\J	.
*	*	*	*	*rep	*	*	*	*rep	*	*rep	*	*	*
.	.	2EE-/	.	4d-/	.	4e-/	.	4g 4B-\	.	4b- 4g\	.	4ee-\	.
*	*	*	*	*Xrep	*	*	*	*Xrep	*	*Xrep	*	*	*
*	*	*	*	*rep	*	*	*	*rep	*	*rep	*	*	*
.	.	.	.	4d-/	.	8dd-\L	.	4g 4B-\	.	4b- 4g\	.	8ddd-\L	.
!	!	!	!	!	!	!LO:TX:b:t=g	!	!	!	!	!	!	!
.	.	.	.	.	.	8ccJ 8a\	.	.	.	.	.	8bb-\J	.
*	*	*	*	*Xrep	*	*	*	*Xrep	*	*Xrep	*	*	*
!	!	!	!	!	!	!LO:LB:g=original	!	!	!	!	!	!LO:LB:g=original	!
=44	=44	=44	=44	=44	=44	=44	=44	=44	=44	=44	=44	=44	=44
*	*	*	*	*	*	*	*	*^	*	*	*	*	*
*	*	*	*	*	*	*	*	*	*	*	*	*	*8ba	*
2Rb\	.	2AA-/	.	2e-^>/	.	4f/	.	2e-/	2A-\	.	2cc 2a-^\	.	4ff\	.
.	.	.	.	.	.	8e-/	.	.	.	.	.	.	8ee-\	.
.	.	.	.	.	.	8r	.	.	.	.	.	.	8r	.
*	*	*	*	*	*	*	*	*rep	*rep	*	*	*	*	*
2Rb-\	.	2AA-/	.	2e-^>/	.	4e-/	.	2e-/	2A-\	.	2cc 2a-^\	.	4ee-\	.
.	.	.	.	.	.	8d-/	.	.	.	.	.	.	8dd-\	.
*	*	*	*	*	*	*	*	*Xrep	*Xrep	*	*	*	*X8ba	*
.	.	.	.	.	.	8r	.	.	.	.	.	.	8r	.
*	*	*	*	*	*	*	*	*v	*v	*	*	*	*	*
=45	=45	=45	=45	=45	=45	=45	=45	=45	=45	=45	=45	=45	=45
!LO:TX:a:t=1	!	!	!	!	!	!	!	!	!	!	!	!	!
1r	.	2AA-/	.	4r	.	4r	.	4r	.	4r	.	8ccc\L	.
.	.	.	.	.	.	.	.	.	.	.	.	8ddd-\	.
.	.	.	.	4e-/	.	4a-/	.	4a- 4c\	.	4cc 4a-\	.	8ddd\	.
.	.	.	.	.	.	.	.	.	.	.	.	8eee-\J	.
*	*	*	*	*	*	*	*	*rep	*	*rep	*	*	*
.	.	2r	.	4e-/	.	4a-/	.	4a- 4c\	.	4cc 4a-\	.	4aa-\	.
*	*	*	*	*	*	*	*	*Xrep	*	*Xrep	*	*	*
*	*	*	*	*	*	*	*	*rep	*	*rep	*	*	*
.	.	.	.	4e-/	.	4a-/	.	4a- 4c\	.	4cc 4a-\	.	8gg\L	.
.	.	.	.	.	.	.	.	.	.	.	.	8aa-\J	.
*	*	*	*	*	*	*	*	*Xrep	*	*Xrep	*	*	*
!	!	!LO:LB:g=original	!	!LO:LB:g=original	!	!	!	!	!	!LO:LB:g=original	!	!	!
=46	=46	=46	=46	=46	=46	=46	=46	=46	=46	=46	=46	=46	=46
*	*	*	*	*	*	*	*	*^	*	*	*	*	*
2Rb\	.	2D-/	.	2f^>/	.	2b-/	.	2g/	2B-\	.	2dd-X 2b-^\	.	4ccc\	.
.	.	.	.	.	.	.	.	.	.	.	.	.	8bb-\	.
.	.	.	.	.	.	.	.	.	.	.	.	.	8r	.
*	*	*	*	*	*	*	*	*rep	*rep	*	*	*	*	*
!LO:TX:t=P:problem=dodatkowy krzyzyk g#	!	!	!	!	!	!	!	!	!	!	!	!	!	!
2Rb#\	.	2D-/	.	2f^>/	.	2b-/	.	2g/	2B-\	.	2dd- 2b-^\	.	4bb-\	.
.	.	.	.	.	.	.	.	.	.	.	.	.	8aa-\	.
.	.	.	.	.	.	.	.	.	.	.	.	.	8r	.
*	*	*	*	*	*	*	*	*Xrep	*Xrep	*	*	*	*	*
*	*	*	*	*	*	*	*	*v	*v	*	*	*	*	*
!LO:LB:g=original	!	!	!	!	!	!	!	!LO:LB:g=original	!	!	!	!	!
=47	=47	=47	=47	=47	=47	=47	=47	=47	=47	=47	=47	=47	=47
2Rb\	.	2E-/	.	4r	.	4r	.	4r	.	4r	.	8gg\L	.
.	.	.	.	.	.	.	.	.	.	.	.	8bb-\	.
.	.	.	.	4e-/	.	4g/	.	4g 4B-\	.	4b- 4g\	.	8ddd-\	.
.	.	.	.	.	.	.	.	.	.	.	.	8fff\J	.
!LO:TX:t=P:problem=dodatkowy bemol i kasownik	!	!	!	!	!	!	!	!	!	!	!	!	!
*	*	*	*	*	*	*	*	*rep	*	*rep	*	*	*
2Rb#-n\	.	2EE-/	.	4e-/	.	4g/	.	4g 4B-\	.	4b- 4g\	.	4eee-\	.
*	*	*	*	*	*	*	*	*Xrep	*	*Xrep	*	*	*
*	*	*	*	*	*	*	*	*rep	*	*rep	*	*	*
.	.	.	.	4e-/	.	4g/	.	4g 4B-\	.	4b- 4g\	.	4gg\	.
*	*	*	*	*	*	*	*	*Xrep	*	*Xrep	*	*	*
!	!	!	!	!	!	!	!	!	!	!	!	!LO:LB:g=original	!
=48	=48	=48	=48	=48	=48	=48	=48	=48	=48	=48	=48	=48	=48
4Rc\	.	4AA-/	.	4e-/	.	4a-/	.	4e- 4A-\	.	4cc 4a-\	.	4aa-\	.
*	*	*	*	*	*	*	*	*rep	*	*	*	*	*
4Rcn\	.	4AA-/	.	4e-/	.	4a-/	.	4e- 4A-\	.	4cc 4a-\	.	4aa-\	.
*	*	*	*	*	*	*	*	*Xrep	*	*	*	*	*
*	*	*	*	*	*	*	*	*rep	*	*	*	*	*
4Rc#\	.	4AA-/	.	4e-/	.	4a-/	.	4e- 4A-\	.	4cc 4a-\	.	4aa-\	.
*	*	*	*	*	*	*	*	*Xrep	*	*	*	*	*
!LO:TX:a:t=Bardzo prosę grac Z energiją	!	!	!	!	!	!	!	!	!	!LO:TX:b:t=DCM.	!	!LO:TX:b:t=DCM	!
4r	.	4r	.	4r	.	4r	.	4r	.	4r	.	4r	.
=:|!	=:|!	=:|!	=:|!	=:|!	=:|!	=:|!	=:|!	=:|!	=:|!	=:|!	=:|!	=:|!	=:|!
*-	*-	*-	*-	*-	*-	*-	*-	*-	*-	*-	*-	*-	*-
!!!system-decoration: [(s1,s2)][(s3,s4,s5,s6)]s7
!!!RDF**kern: > = above
!!!RDF**kern: < = below
!!!ENC: Anastazja Marusiak
!!!END: 2020-08-17
!!!ENC: Marta Lawrence
!!!END: 2021-11-02
